packages/icons/svg/24/Ar.svg

<svg width="24" height="24" viewBox="0 0 24 24" fill="none" xmlns="http://www.w3.org/2000/svg">
<path fill-rule="evenodd" clip-rule="evenodd" d="M2 2H7C7.55228 2 8 2.44772 8 3C8 3.55228 7.55228 4 7 4H4V7C4 7.55228 3.55228 8 3 8C2.44772 8 2 7.55228 2 7V2Z" fill="#858585"/>
<path fill-rule="evenodd" clip-rule="evenodd" d="M22 2V7C22 7.55228 21.5523 8 21 8C20.4477 8 20 7.55228 20 7V4H17C16.4477 4 16 3.55228 16 3C16 2.44772 16.4477 2 17 2H22Z" fill="#858585"/>
<path fill-rule="evenodd" clip-rule="evenodd" d="M22 22H17C16.4477 22 16 21.5523 16 21C16 20.4477 16.4477 20 17 20H20V17C20 16.4477 20.4477 16 21 16C21.5523 16 22 16.4477 22 17V22Z" fill="#858585"/>
<path fill-rule="evenodd" clip-rule="evenodd" d="M2 22V17C2 16.4477 2.44772 16 3 16C3.55228 16 4 16.4477 4 17V20H7C7.55228 20 8 20.4477 8 21C8 21.5523 7.55228 22 7 22H2Z" fill="#858585"/>
<path fill-rule="evenodd" clip-rule="evenodd" d="M11.5 5.13397C11.8094 4.95534 12.1906 4.95534 12.5 5.13397L17.6962 8.13397C18.0056 8.31261 18.1962 8.64273 18.1962 9V15C18.1962 15.3573 18.0056 15.6874 17.6962 15.866L12.5 18.866C12.1906 19.0447 11.8094 19.0447 11.5 18.866L6.30384 15.866C5.99444 15.6874 5.80384 15.3573 5.80384 15V9C5.80384 8.64273 5.99444 8.31261 6.30384 8.13397L11.5 5.13397ZM7.80384 10.732V14.4226L11 16.2679V12.5774L7.80384 10.732ZM13 12.5774V16.2679L16.1962 14.4226V10.732L13 12.5774ZM15.1962 9L12 10.8453L8.80385 9L12 7.1547L15.1962 9Z" fill="#858585"/>
</svg>

<svg width="24" height="24" fill="none" xmlns="http://www.w3.org/2000/svg" viewBox="0 0 24 24"><path fill-rule="evenodd" clip-rule="evenodd" d="M2 2h5a1 1 0 010 2H4v3a1 1 0 01-2 0V2zM22 2v5a1 1 0 11-2 0V4h-3a1 1 0 110-2h5zM22 22h-5a1 1 0 110-2h3v-3a1 1 0 112 0v5zM2 22v-5a1 1 0 112 0v3h3a1 1 0 110 2H2zM11.5 5.134a1 1 0 011 0l5.196 3a1 1 0 01.5.866v6a1 1 0 01-.5.866l-5.196 3a1 1 0 01-1 0l-5.196-3a1 1 0 01-.5-.866V9a1 1 0 01.5-.866l5.196-3zm-3.696 5.598v3.69L11 16.269v-3.69l-3.196-1.846zM13 12.577v3.69l3.196-1.844v-3.691L13 12.577zM15.196 9L12 10.845 8.804 9 12 7.155 15.196 9z" fill="currentColor"></path></svg>
